icon-themes/breeze_svg/cmd/sc_connectorarrowend.svg

<?xml version="1.0" encoding="UTF-8" standalone="no"?>
<!-- Created with Inkscape (http://www.inkscape.org/) -->

<svg
   xmlns:dc="http://purl.org/dc/elements/1.1/"
   xmlns:cc="http://creativecommons.org/ns#"
   xmlns:rdf="http://www.w3.org/1999/02/22-rdf-syntax-ns#"
   xmlns:svg="http://www.w3.org/2000/svg"
   xmlns="http://www.w3.org/2000/svg"
   xmlns:sodipodi="http://sodipodi.sourceforge.net/DTD/sodipodi-0.dtd"
   xmlns:inkscape="http://www.inkscape.org/namespaces/inkscape"
   width="16"
   height="16"
   id="svg3049"
   version="1.1"
   inkscape:version="0.48.4 r9939"
   sodipodi:docname="sc_connectorarrowend.svg"
   inkscape:export-filename="/home/uri/.kde/share/icons/NITRUX-KDE/16x16/actions/view-right-new.png"
   inkscape:export-xdpi="30"
   inkscape:export-ydpi="30">
  <defs
     id="defs3051" />
  <sodipodi:namedview
     id="base"
     pagecolor="#ffffff"
     bordercolor="#666666"
     borderopacity="1.0"
     inkscape:pageopacity="0.0"
     inkscape:pageshadow="2"
     inkscape:zoom="48.822612"
     inkscape:cx="9.8689331"
     inkscape:cy="7.2726257"
     inkscape:document-units="px"
     inkscape:current-layer="layer1-8-2"
     showgrid="true"
     fit-margin-top="0"
     fit-margin-left="0"
     fit-margin-right="0"
     fit-margin-bottom="0"
     inkscape:window-width="1478"
     inkscape:window-height="1053"
     inkscape:window-x="438"
     inkscape:window-y="0"
     inkscape:window-maximized="0"
     inkscape:showpageshadow="false"
     borderlayer="true"
     inkscape:snap-bbox="true"
     inkscape:snap-global="true"
     showguides="true"
     inkscape:guide-bbox="true">
    <inkscape:grid
       type="xygrid"
       id="grid4085" />
    <sodipodi:guide
       position="2,8"
       orientation="12,0"
       id="guide4075" />
    <sodipodi:guide
       position="2.0000044,2.0000296"
       orientation="0,12"
       id="guide4077" />
    <sodipodi:guide
       position="14.000004,2.0000296"
       orientation="-12,0"
       id="guide4079" />
    <sodipodi:guide
       position="14.000004,14.00003"
       orientation="0,-12"
       id="guide4081" />
  </sodipodi:namedview>
  <metadata
     id="metadata3054">
    <rdf:RDF>
      <cc:Work
         rdf:about="">
        <dc:format>image/svg+xml</dc:format>
        <dc:type
           rdf:resource="http://purl.org/dc/dcmitype/StillImage" />
        <dc:title />
      </cc:Work>
    </rdf:RDF>
  </metadata>
  <g
     inkscape:label="Capa 1"
     inkscape:groupmode="layer"
     id="layer1"
     transform="translate(-421.71429,-531.79074)">
    <g
       transform="matrix(0.75000002,0,0,0.83333404,421.46429,-327.98583)"
       id="layer1-4"
       inkscape:label="Capa 1">
      <g
         transform="matrix(0.99999997,0,0,0.89999799,0,104.10707)"
         id="layer1-8"
         inkscape:label="Capa 1">
        <g
           transform="matrix(1,0,0,1.0000016,0,-0.00161868)"
           id="layer1-7"
           inkscape:label="Capa 1">
          <g
             inkscape:label="Capa 1"
             id="layer1-3"
             transform="translate(-461.71429,504.57143)" />
        </g>
        <g
           transform="matrix(1,0,0,1.1111136,2.617857e-6,-115.67483)"
           id="layer1-4-0"
           inkscape:label="Capa 1">
          <g
             transform="matrix(0.99999997,0,0,0.89999799,0,104.10707)"
             id="layer1-8-2"
             inkscape:label="Capa 1">
            <path
               style="fill:#4d4d4d;fill-opacity:1;stroke:none"
               d="M 3.5,2 C 2.671573,2 2,2.6715511 2,3.5 2,4.3284489 2.671573,5 3.5,5 4.1558381,5 4.7024102,4.5864166 4.90625,4 l 3.0937499,6.9e-6 0,8.0000001 0,1 0.9999999,0 L 12,13 l 0,0.25 0,0.75 2,-1.5 -2,-1.5 0,0.75 0,0.25 -3.0000002,7e-6 0,-9.0000001 L 8,3 7.5,3 4.90625,3 C 4.7024102,2.4135834 4.1558381,2 3.5,2 z m 0,1 C 3.776142,3 4,3.2238504 4,3.5 4,3.7761496 3.776142,4 3.5,4 3.223858,4 3,3.7761496 3,3.5 3,3.2238504 3.223858,3 3.5,3 z"
               transform="matrix(1.3333334,0,0,1.3333352,0.33333073,1030.6956)"
               id="path4197-8-1"
               inkscape:connector-curvature="0"
               sodipodi:nodetypes="ssscccccccccccccccccssssss" />
          </g>
        </g>
      </g>
    </g>
  </g>
</svg>

<svg xmlns="http://www.w3.org/2000/svg" viewBox="0 0 16 16">
     />
 <path 
     style="fill:#4d4d4d" 
     d="M 3.5 2 C 2.671573 2 2 2.6715511 2 3.5 C 2 4.3284489 2.671573 5 3.5 5 C 4.1558381 5 4.7024102 4.5864166 4.90625 4 L 8 4 L 8 12 L 8 13 L 9 13 L 12 13 L 12 13.25 L 12 14 L 14 12.5 L 12 11 L 12 11.75 L 12 12 L 9 12 L 9 3 L 8 3 L 7.5 3 L 4.90625 3 C 4.7024102 2.4135834 4.1558381 2 3.5 2 z M 3.5 3 C 3.776142 3 4 3.2238504 4 3.5 C 4 3.7761496 3.776142 4 3.5 4 C 3.223858 4 3 3.7761496 3 3.5 C 3 3.2238504 3.223858 3 3.5 3 z "
     />
 </svg>
